communes/4006.svg

<?xml version="1.0" encoding="UTF-8" standalone="no"?>
<!-- Created with Inkscape (http://www.inkscape.org/) -->
<svg
   xmlns:svg="http://www.w3.org/2000/svg"
   xmlns="http://www.w3.org/2000/svg"
   version="1.0"
   width="321.64999"
   height="359.26999"
   id="svg2">
  <defs
     id="defs4">
    <clipPath
       id="clipPath2808">
      <path
         d="M 418.2,212.64 L 421.56,212.64 L 421.56,200.29 L 418.2,200.29 L 418.2,212.64 z"
         id="path2810" />
    </clipPath>
    <clipPath
       id="clipPath2792">
      <path
         d="M 354.48,210.24 L 418.19,210.24 L 418.19,138.6 L 354.48,138.6 L 354.48,210.24 z"
         id="path2794" />
    </clipPath>
    <clipPath
       id="clipPath2780">
      <path
         d="M 354.48,210.24 L 418.19,210.24 L 418.19,138.6 L 354.48,138.6 L 354.48,210.24 z"
         id="path2782" />
    </clipPath>
    <clipPath
       id="clipPath2710">
      <path
         d="M 422.04,110.76 L 422.04,135.12 L 549.12,135.12 L 549.12,110.76 L 545.88,110.76 L 545.88,125.88 L 425.28,125.88 L 425.28,110.76 L 422.04,110.76 z"
         id="path2712" />
    </clipPath>
    <clipPath
       id="clipPath2688">
      <path
         d="M 351.12,110.76 L 351.12,135.12 L 354.48,135.12 L 354.48,110.76 L 351.12,110.76 z M 418.32,110.76 L 418.32,135.12 L 421.56,135.12 L 421.56,110.76 L 418.32,110.76 z"
         id="path2690" />
    </clipPath>
    <clipPath
       id="clipPath2666">
      <path
         d="M 288.84,110.76 L 288.84,135.12 L 350.64,135.12 L 350.64,110.76 L 347.4,110.76 L 347.4,132.84 L 292.08,132.84 L 292.08,110.76 L 288.84,110.76 z"
         id="path2668" />
    </clipPath>
    <clipPath
       id="clipPath2650">
      <path
         d="M 147.12,110.76 L 147.12,135.12 L 288.36,135.12 L 288.36,110.76 L 285.12,110.76 L 285.12,125.88 L 150.36,125.88 L 150.36,110.76 L 147.12,110.76 z"
         id="path2652" />
    </clipPath>
    <clipPath
       id="clipPath2634">
      <path
         d="M 67.68,110.76 L 67.68,135.12 L 146.64,135.12 L 146.64,110.76 L 143.28,110.76 L 143.28,125.88 L 70.92,125.88 L 70.92,110.76 L 67.68,110.76 z"
         id="path2636" />
    </clipPath>
    <clipPath
       id="clipPath2502">
      <path
         d="M 70.92,803.76 L 574.44,803.76 L 574.44,774.97 L 70.92,774.97 L 70.92,803.76 z"
         id="path2504" />
    </clipPath>
    <clipPath
       id="clipPath2480">
      <path
         d="M 70.92,803.76 L 574.44,803.76 L 574.44,801.97 L 70.92,801.97 L 70.92,803.76 z"
         id="path2482" />
    </clipPath>
    <clipPath
       id="clipPath2470">
      <path
         d="M 70.92,776.76 L 574.44,776.76 L 574.44,774.97 L 70.92,774.97 L 70.92,776.76 z"
         id="path2472" />
    </clipPath>
  </defs>
  <g
     transform="translate(-208.88393,-367.72467)"
     id="layer1">
    <g
       transform="matrix(3.800336,0,0,3.800336,275.12468,134.35788)"
       id="g5056">
      <g
         transform="matrix(1.25,0,0,1.25,-458.03661,-109.34993)"
         id="g2784">
        <path
           d="M 354.59,138.71 L 418.09,138.71 L 418.09,178.39 L 418.09,178.39 L 418.09,180.01 L 417.92,181.63 L 417.75,183.2 L 417.47,184.77 L 417.08,186.34 L 416.68,187.85 L 416.18,189.31 L 415.62,190.76 L 414.95,192.16 L 414.28,193.5 L 413.5,194.84 L 412.71,196.13 L 411.82,197.36 L 410.86,198.59 L 409.85,199.72 L 408.8,200.84 L 407.73,201.9 L 406.55,202.85 L 405.38,203.8 L 404.09,204.7 L 402.8,205.54 L 401.51,206.26 L 400.11,206.99 L 398.71,207.61 L 397.26,208.16 L 395.8,208.67 L 394.29,209.12 L 392.77,209.45 L 391.21,209.73 L 389.59,209.96 L 388.02,210.07 L 386.34,210.13 L 386.34,210.13 L 384.71,210.07 L 383.09,209.96 L 381.52,209.73 L 379.96,209.45 L 378.44,209.12 L 376.93,208.67 L 375.42,208.16 L 374.02,207.61 L 372.62,206.99 L 371.22,206.26 L 369.88,205.54 L 368.59,204.7 L 367.36,203.8 L 366.18,202.85 L 365,201.9 L 363.95,200.84 L 362.88,199.72 L 361.87,198.59 L 360.92,197.36 L 360.02,196.13 L 359.23,194.84 L 358.45,193.5 L 357.73,192.16 L 357.11,190.76 L 356.55,189.31 L 356.05,187.85 L 355.6,186.34 L 355.26,184.77 L 354.98,183.2 L 354.76,181.63 L 354.64,180.01 L 354.59,178.39 L 354.59,138.71 z"
           id="path2786"
           style="fill:#000000;fill-opacity:1;fill-rule:evenodd;stroke:none" />
      </g>
      <path
         d="M -13.04911,65.78757 L 29.01339,65.78757 L -13.04911,107.82507 L -13.04911,65.78757 z"
         id="path2796"
         style="fill:#fcdb00;fill-opacity:1;fill-rule:evenodd;stroke:#fcdb00;stroke-width:0.14999999;stroke-linecap:round;stroke-linejoin:round;stroke-miterlimit:10;stroke-dasharray:none;stroke-opacity:1" />
      <path
         d="M 62.81339,66.21257 L 62.81339,98.11257 L 11.72589,149.17507 L 11.72589,149.17507 L 10.38839,148.68757 L 9.07589,148.06257 L 7.73839,147.43757 L 6.47589,146.72507 L 5.22589,146.03757 L 4.02589,145.25007 L 2.83839,144.42507 L 1.65089,143.57507 L 0.53839,142.67507 L -0.51161,141.70007 L -1.57411,140.71257 L -2.62411,139.66257 L -3.52411,138.62507 L -4.51161,137.50007 L -5.34911,136.37507 L -6.26161,135.18757 L 62.81339,66.21257 z"
         id="path2798"
         style="fill:#fcdb00;fill-opacity:1;fill-rule:evenodd;stroke:#fcdb00;stroke-width:0.14999999;stroke-linecap:round;stroke-linejoin:round;stroke-miterlimit:10;stroke-dasharray:none;stroke-opacity:1" />
      <path
         d="M 62.81339,99.22507 L 62.81339,113.42507 L 62.81339,113.42507 L 62.81339,115.38757 L 62.67589,117.35007 L 62.41339,119.23757 L 62.05089,121.12507 L 61.62589,122.95007 L 61.13839,124.76257 L 60.51339,126.51257 L 59.88839,128.26257 L 59.11339,129.93757 L 58.27589,131.61257 L 57.36339,133.22507 L 56.37589,134.76257 L 55.32589,136.23757 L 54.21339,137.71257 L 53.02589,139.03757 L 51.76339,140.36257 L 50.43839,141.61257 L 49.03839,142.88757 L 47.63839,144.00007 L 46.08839,145.05007 L 44.56339,146.03757 L 43.01339,146.95007 L 41.32589,147.77507 L 39.65089,148.55007 L 37.97589,149.25007 L 36.16339,149.81257 L 34.40089,150.36257 L 32.58839,150.78757 L 30.70089,151.13757 L 28.81339,151.35007 L 26.85089,151.48757 L 24.88839,151.56257 L 24.88839,151.56257 L 23.27589,151.48757 L 21.73839,151.41257 L 20.12589,151.27507 L 18.58839,150.98757 L 17.05089,150.72507 L 15.50089,150.36257 L 14.03839,149.93757 L 12.56339,149.45007 L 62.81339,99.22507 z"
         id="path2800"
         style="fill:#0093dd;fill-opacity:1;fill-rule:evenodd;stroke:#0093dd;stroke-width:0.14999999;stroke-linecap:round;stroke-linejoin:round;stroke-miterlimit:10;stroke-dasharray:none;stroke-opacity:1" />
      <path
         d="M 30.13839,65.78757 L 62.12589,65.78757 L -6.67411,134.56257 L -6.67411,134.56257 L -7.38661,133.37507 L -8.07411,132.23757 L -8.77411,131.06257 L -9.33661,129.80007 L -9.89911,128.53757 L -10.44911,127.28757 L -10.94911,125.95007 L -11.36161,124.62507 L -11.72411,123.28757 L -12.07411,121.96257 L -12.34911,120.56257 L -12.62411,119.16257 L -12.77411,117.77507 L -12.91161,116.36257 L -12.97411,114.90007 L -13.04911,113.42507 L -13.04911,108.95007 L 30.13839,65.78757 z"
         id="path2802"
         style="fill:#0093dd;fill-opacity:1;fill-rule:evenodd;stroke:#0093dd;stroke-width:0.14999999;stroke-linecap:round;stroke-linejoin:round;stroke-miterlimit:10;stroke-dasharray:none;stroke-opacity:1" />
    </g>
  </g>
</svg>

<?xml version="1.0" encoding="UTF-8"?>
<svg version="1.0" viewBox="0 0 321.65 359.27" xmlns="http://www.w3.org/2000/svg">
<g transform="translate(-208.88 -367.72)">
<g transform="matrix(3.8003 0 0 3.8003 275.12 134.36)">
<g transform="matrix(1.25 0 0 1.25 -458.04 -109.35)">
<path d="m354.59 138.71h63.5v39.68 1.62l-0.17 1.62-0.17 1.57-0.28 1.57-0.39 1.57-0.4 1.51-0.5 1.46-0.56 1.45-0.67 1.4-0.67 1.34-0.78 1.34-0.79 1.29-0.89 1.23-0.96 1.23-1.01 1.13-1.05 1.12-1.07 1.06-1.18 0.95-1.17 0.95-1.29 0.9-1.29 0.84-1.29 0.72-1.4 0.73-1.4 0.62-1.45 0.55-1.46 0.51-1.51 0.45-1.52 0.33-1.56 0.28-1.62 0.23-1.57 0.11-1.68 0.06-1.63-0.06-1.62-0.11-1.57-0.23-1.56-0.28-1.52-0.33-1.51-0.45-1.51-0.51-1.4-0.55-1.4-0.62-1.4-0.73-1.34-0.72-1.29-0.84-1.23-0.9-2.36-1.9-1.05-1.06-1.07-1.12-1.01-1.13-0.95-1.23-0.9-1.23-0.79-1.29-0.78-1.34-0.72-1.34-0.62-1.4-0.56-1.45-0.5-1.46-0.45-1.51-0.34-1.57-0.28-1.57-0.22-1.57-0.12-1.62-0.05-1.62v-39.68z" fill-rule="evenodd"/>
</g>
<path d="m-13.049 65.788h42.062l-42.062 42.038v-42.038z" fill="#fcdb00" fill-rule="evenodd" stroke="#fcdb00" stroke-linecap="round" stroke-linejoin="round" stroke-miterlimit="10" stroke-width=".15"/>
<path d="m62.813 66.213v31.9l-51.088 51.062v0l-1.3375-0.4875-1.3125-0.625-1.3375-0.625-1.2625-0.7125-1.25-0.6875-1.2-0.7875-1.1875-0.825-1.1875-0.85-1.1125-0.9-1.05-0.975-1.0625-0.9875-1.05-1.05-0.9-1.0375-0.9875-1.125-0.8375-1.125-0.9125-1.1875 69.075-68.975z" fill="#fcdb00" fill-rule="evenodd" stroke="#fcdb00" stroke-linecap="round" stroke-linejoin="round" stroke-miterlimit="10" stroke-width=".15"/>
<path d="m62.813 99.225v14.2 0 1.9625l-0.1375 1.9625-0.2625 1.8875-0.3625 1.8875-0.425 1.825-0.4875 1.8125-1.25 3.5-0.775 1.675-0.8375 1.675-0.9125 1.6125-0.9875 1.5375-1.05 1.475-1.1125 1.475-1.1875 1.325-1.2625 1.325-1.325 1.25-1.4 1.275-1.4 1.1125-1.55 1.05-1.525 0.9875-1.55 0.9125-1.6875 0.825-1.675 0.775-1.675 0.7-1.8125 0.5625-1.7625 0.55-1.8125 0.425-1.8875 0.35-1.8875 0.2125-1.9625 0.1375-1.9625 0.075v0l-1.6125-0.075-1.5375-0.075-1.6125-0.1375-1.5375-0.2875-1.5375-0.2625-1.55-0.3625-1.4625-0.425-1.475-0.4875 50.25-50.225z" fill="#0093dd" fill-rule="evenodd" stroke="#0093dd" stroke-linecap="round" stroke-linejoin="round" stroke-miterlimit="10" stroke-width=".15"/>
<path d="m30.138 65.788h31.988l-68.8 68.775v0l-0.7125-1.1875-0.6875-1.1375-0.7-1.175-1.125-2.525-0.55-1.25-0.5-1.3375-0.4125-1.325-0.3625-1.3375-0.35-1.325-0.55-2.8-0.15-1.3875-0.1375-1.4125-0.0625-1.4625-0.075-1.475v-4.475l43.188-43.162z" fill="#0093dd" fill-rule="evenodd" stroke="#0093dd" stroke-linecap="round" stroke-linejoin="round" stroke-miterlimit="10" stroke-width=".15"/>
</g>
</g>
</svg>
